X:1
T:Little Lamb
T:Little Lamb
T:W. B. Caldwell, 1910
T:Public Domain Courtesy of the Cyber Hymnal™
C:W. B. Caldwell, 1910
Z:Public Domain
Z:Courtesy of the Cyber Hymnal™
%%score ( 1 2 ) ( 3 4 )
L:1/8
Q:1/4=100
M:2/4
K:D
V:1 treble 
V:2 treble 
V:3 bass 
V:4 bass 
V:1
 [DF][EG] [FA][FA] | [GB]2 [FA]2 | [FB][GB] [EA]F | [GB]2 [FA]2 | [DF][DF] [CF][CF] | %5
 [EG][CG] [DF]2 | [DF][DF] [CF][CF] | [EG][EG] [DF]2 | [FA][FB] [Ac][FB] | [EA]2 [E^G]2 | [EA]4 | %11
 [FB][Fc] [Fd]B | [Ac]2 [^GB]2 x | A4 | [EA][DA] [GA][FA] | [EA][FA] [EA]2 | [GA][FA] [EA][DA] | %17
 [CA][DA] [GA]2 | [DF][EG] [FA][FA] | [GB]2 [FA]2 | [FB][GB] [EA][DF] | [CE]2 [DF]6 |] %22
V:2
 x4 | x4 | x3 F | x4 | x4 | x4 | x4 | x4 | x4 | x4 | x4 | x3 B | x5 | A4 | x4 | x4 | x4 | x4 | x4 | %19
 x4 | x4 | x8 |] %22
V:3
 [D,A,][D,D] [D,D][D,D] | [G,D]2 [D,D]2 | [B,D][G,D] [A,C][D,D] | [G,D]2 [D,D]2 | %4
 [D,A,][D,A,] [F,A,][F,A,] | [E,B,][E,A,] [D,A,]2 | [D,A,][D,A,] [F,A,][F,A,] | %7
 [E,B,][E,C] [B,,D]2 | [F,C][D,D] [C,E][D,D] | [E,C]2 [E,B,]2 | [A,C]4 | %11
 [D,B,][C,^A,] [B,,B,][D,F] | E3 z [E,D] | [A,,A,C]4 | [G,A,][F,A,] [E,A,][D,A,] | %15
 [C,A,][D,A,] [C,A,]2 | [E,A,][D,A,] [G,A,][F,A,] | [E,G,][D,F,] [C,E,]2 | [D,A,][D,D] [D,D][D,D] | %19
 [G,D]2 [D,D]2 | [B,D][G,D] [A,C][D,A,] | [A,,A,]2 [D,A,]6 |] %22
V:4
 x4 | x4 | x4 | x4 | x4 | x4 | x4 | x4 | x4 | x4 | x4 | x4 | E,2 D,2 x | x4 | x4 | x4 | x4 | x4 | %18
 x4 | x4 | x4 | x8 |] %22

